assets/img/kubuntu-dark.svg

<?xml version="1.0" encoding="UTF-8"?>
<svg width="873px" height="171px" viewBox="0 0 873 171" version="1.1" xmlns="http://www.w3.org/2000/svg" xmlns:xlink="http://www.w3.org/1999/xlink">
    <title>kubuntu</title>
    <g id="Page-1" stroke="none" stroke-width="1" fill="none" fill-rule="evenodd">
        <g id="kubuntu" transform="translate(-0.000016, 0.000000)" fill-rule="nonzero">
            <path d="M40.794,105.76 C45.11,109.072 49.677,113.173 54.499,118.063 C59.318,122.958 64.066,128.246 68.744,133.927 C73.418,139.614 77.843,145.366 82.018,151.194 C86.189,157.021 89.713,162.454 92.594,167.489 L68.204,167.489 C65.183,162.454 61.692,157.344 57.736,152.167 C53.777,146.986 49.676,142.021 45.433,137.272 C41.188,132.524 36.871,128.137 32.483,124.106 C28.092,120.079 23.958,116.697 20.073,113.961 L20.073,167.489 L0,167.489 L0,3.453 L20.073,0 L20.073,102.307 C23.526,98.854 27.338,95.042 31.512,90.868 C35.684,86.696 39.784,82.451 43.815,78.134 C47.841,73.819 51.656,69.683 55.253,65.725 C58.849,61.768 61.944,58.278 64.534,55.256 L88.276,55.256 C84.964,58.854 81.37,62.809 77.484,67.126 C73.599,71.443 69.569,75.797 65.397,80.185 C61.222,84.575 57.013,88.963 52.771,93.351 C48.526,97.74 44.533,101.875 40.794,105.76 Z" id="path9" fill="#FFFFFF"></path>
            <path d="M196.408,164.252 C191.802,165.404 185.723,166.626 178.17,167.92 C170.615,169.216 161.874,169.863 151.945,169.863 C143.312,169.863 136.045,168.602 130.145,166.087 C124.244,163.571 119.496,160.009 115.9,155.402 C112.302,150.798 109.712,145.366 108.13,139.107 C106.545,132.846 105.756,125.907 105.756,118.278 L105.756,55.255 L125.828,55.255 L125.828,113.961 C125.828,127.633 127.986,137.417 132.304,143.315 C136.62,149.217 143.885,152.167 154.104,152.167 C156.262,152.167 158.491,152.094 160.794,151.949 C163.094,151.807 165.252,151.625 167.27,151.41 C169.283,151.194 171.118,150.978 172.774,150.763 C174.426,150.547 175.613,150.298 176.335,150.008 L176.335,55.255 L196.408,55.255 L196.408,164.252 L196.408,164.252 Z" id="path11" fill="#FFFFFF"></path>
            <path d="M245.4,60.218 C247.844,58.638 251.551,56.981 256.515,55.255 C261.479,53.527 267.199,52.665 273.674,52.665 C281.731,52.665 288.89,54.104 295.15,56.98 C301.409,59.86 306.697,63.887 311.013,69.068 C315.33,74.248 318.602,80.436 320.834,87.63 C323.063,94.825 324.18,102.737 324.18,111.37 C324.18,120.436 322.847,128.604 320.187,135.869 C317.523,143.136 313.746,149.286 308.855,154.321 C303.961,159.36 298.064,163.245 291.157,165.977 C284.251,168.708 276.48,170.078 267.846,170.078 C258.492,170.078 250.219,169.431 243.025,168.135 C235.829,166.841 229.93,165.547 225.327,164.251 L225.327,3.453 L245.4,0 L245.4,60.218 Z M245.4,150.007 C247.413,150.583 250.255,151.122 253.925,151.624 C257.594,152.13 262.16,152.381 267.63,152.381 C278.422,152.381 287.056,148.819 293.53,141.697 C300.006,134.574 303.243,124.467 303.243,111.371 C303.243,105.618 302.666,100.223 301.516,95.183 C300.363,90.148 298.495,85.794 295.904,82.126 C293.314,78.455 289.968,75.579 285.868,73.491 C281.767,71.406 276.837,70.361 271.084,70.361 C265.613,70.361 260.578,71.299 255.976,73.167 C251.369,75.04 247.844,76.982 245.4,78.994 L245.4,150.007 Z" id="path13" fill="#FFFFFF"></path>
            <path d="M436.195,164.252 C431.59,165.404 425.511,166.626 417.959,167.92 C410.404,169.216 401.663,169.863 391.734,169.863 C383.101,169.863 375.833,168.602 369.935,166.087 C364.033,163.571 359.284,160.009 355.69,155.402 C352.09,150.798 349.501,145.366 347.919,139.107 C346.333,132.846 345.545,125.907 345.545,118.278 L345.545,55.255 L365.617,55.255 L365.617,113.961 C365.617,127.633 367.775,137.417 372.093,143.315 C376.408,149.217 383.673,152.167 393.893,152.167 C396.051,152.167 398.279,152.094 400.582,151.949 C402.882,151.807 405.041,151.625 407.059,151.41 C409.071,151.194 410.906,150.978 412.563,150.763 C414.213,150.547 415.402,150.298 416.124,150.008 L416.124,55.255 L436.195,55.255 L436.195,164.252 Z" id="path15" fill="#FFFFFF"></path>
            <path d="M465.115,58.492 C469.719,57.341 475.833,56.118 483.462,54.821 C491.088,53.527 499.866,52.881 509.794,52.881 C518.715,52.881 526.124,54.142 532.025,56.657 C537.923,59.177 542.634,62.7 546.162,67.233 C549.686,71.766 552.169,77.199 553.609,83.528 C555.046,89.861 555.767,96.84 555.767,104.465 L555.767,167.488 L535.694,167.488 L535.694,108.781 C535.694,101.875 535.225,95.977 534.291,91.083 C533.354,86.193 531.811,82.234 529.651,79.213 C527.492,76.19 524.613,73.998 521.018,72.629 C517.418,71.263 512.957,70.578 507.636,70.578 C505.477,70.578 503.244,70.652 500.945,70.794 C498.641,70.939 496.446,71.119 494.362,71.335 C492.274,71.551 490.402,71.804 488.751,72.09 C487.095,72.38 485.907,72.596 485.189,72.736 L485.189,167.488 L465.116,167.488 L465.116,58.492 L465.115,58.492 Z" id="path17" fill="#FFFFFF"></path>
            <path d="M602.17,55.255 L644.69,55.255 L644.69,72.09 L602.17,72.09 L602.17,123.89 C602.17,129.502 602.601,134.143 603.465,137.812 C604.328,141.482 605.623,144.361 607.35,146.445 C609.077,148.533 611.236,150.007 613.826,150.87 C616.416,151.733 619.437,152.167 622.89,152.167 C629.075,152.167 633.969,151.484 637.567,150.115 C641.162,148.749 643.611,147.778 644.906,147.202 L649.222,163.605 C647.205,164.613 643.644,165.909 638.538,167.489 C633.429,169.072 627.639,169.864 621.163,169.864 C613.535,169.864 607.242,168.893 602.277,166.95 C597.312,165.007 593.32,162.094 590.298,158.21 C587.277,154.323 585.152,149.541 583.931,143.856 C582.706,138.173 582.096,131.591 582.096,124.107 L582.096,23.958 L602.169,20.505 L602.169,55.255 L602.17,55.255 Z" id="path19" fill="#FFFFFF"></path>
            <path d="M753.899,164.252 C749.293,165.404 743.215,166.626 735.662,167.92 C728.107,169.216 719.366,169.863 709.437,169.863 C700.804,169.863 693.537,168.602 687.638,166.087 C681.736,163.571 676.988,160.009 673.393,155.402 C669.794,150.798 667.205,145.366 665.622,139.107 C664.037,132.846 663.248,125.907 663.248,118.278 L663.248,55.255 L683.321,55.255 L683.321,113.961 C683.321,127.633 685.479,137.417 689.796,143.315 C694.112,149.217 701.377,152.167 711.596,152.167 C713.754,152.167 715.983,152.094 718.286,151.949 C720.586,151.807 722.745,151.625 724.762,151.41 C726.775,151.194 728.61,150.978 730.266,150.763 C731.917,150.547 733.105,150.298 733.827,150.008 L733.827,55.255 L753.899,55.255 L753.899,164.252 L753.899,164.252 Z" id="path21" fill="#FFFFFF"></path>
            <g id="g3647" transform="translate(782.991906, 10.549172)">
                <path d="M89.24788,44.622169 C89.24788,69.266109 69.26863,89.247177 44.62309,89.247177 C19.97853,89.247177 0,69.266109 0,44.622169 C0,19.977924 19.97853,0 44.62309,0 C69.26863,0 89.24788,19.977924 89.24788,44.622169 Z" id="path2819-8-3-8" fill="#0079C1"></path>
                <g id="g4835-5-6-3" transform="translate(8.598108, 18.376684)" fill="#FFFFFF">
                    <path d="M21.4075565,42.1859758 L22.9241135,9.28482762 L12.8394591,0.0986196837 C12.5997756,-0.0579231279 12.2842564,-0.0254808293 12.0828957,0.177295995 L7.42388347,4.83549843 C7.22800043,5.0319878 7.19109378,5.33717049 7.33547281,5.57502669 L12.7899817,14.558268 C11.8225309,16.1847435 11.0477198,17.938567 10.4935263,19.7885035 L0.479366938,21.8714345 C0.200750219,21.9292259 0,22.1760067 0,22.4619242 L0,29.0495484 C0,29.3281651 0.190206057,29.5694682 0.458681443,29.634357 L10.1782064,32.010095 C10.6965066,34.1526406 11.4999103,36.1840634 12.5614487,38.0508328 L6.93579549,46.6299353 C6.77884569,46.8696188 6.81169497,47.185545 7.0144718,47.387512 L11.6720638,52.0457146 C11.8679468,52.2411907 12.1737358,52.2789071 12.4126053,52.1353421 L21.4075565,42.1859758 Z" id="path79-9-8-1"></path>
                </g>
                <g id="g4835-5-6-3-7" transform="translate(57.768227, 23.510943) rotate(121.306627) translate(-57.768227, -23.510943) translate(46.671981, -2.600123)" fill="#FFFFFF">
                    <path d="M22.0711035,42.9598301 L22.1924922,9.90196626 L12.839459,0.0986196828 C12.5997755,-0.0579231273 12.2842563,-0.0254808291 12.0828956,0.177295994 L7.42388341,4.83549839 C7.22800036,5.03198775 7.19109372,5.33717044 7.33547274,5.57502664 L12.7899816,14.5582679 C11.8225308,16.1847433 11.0477197,17.9385668 10.4935262,19.7885033 L0.479366934,21.8714343 C0.200750217,21.9292257 -2.36063895e-14,22.1760065 -2.36063895e-14,22.461924 L-2.36063895e-14,29.0495482 C-2.36063895e-14,29.3281649 0.190206055,29.569468 0.458681439,29.6343567 L10.1782063,32.0100948 C10.6965065,34.1526403 11.4999102,36.184063 12.5614486,38.0508324 L6.93579542,46.6299349 C6.77884563,46.8696184 6.81169491,47.1855446 7.01447173,47.3875116 L11.6720637,52.0457141 C11.8679467,52.2411902 12.1737357,52.2789066 12.4126052,52.1353416 L22.0711035,42.9598301 Z" id="path79-9-8-1-7"></path>
                </g>
                <g id="g4835-5-6-3-1" transform="translate(56.775400, 66.231996) rotate(-119.948326) translate(-56.775400, -66.231996) translate(45.572825, 40.120929)" fill="#FFFFFF">
                    <path d="M21.7175114,42.0056986 L22.4051494,9.58087421 L12.8394594,0.0986196861 C12.5997759,-0.0579231293 12.2842567,-0.0254808299 12.082896,0.177296 L7.42388365,4.83549855 C7.2280006,5.03198792 7.19109396,5.33717062 7.33547299,5.57502683 L12.789982,14.5582684 C11.8225312,16.1847439 11.0477201,17.9385674 10.4935265,19.788504 L0.47936695,21.871435 C0.200750224,21.9292265 0,22.1760072 0,22.4619247 L0,29.0495491 C0,29.3281659 0.190206061,29.569469 0.458681454,29.6343577 L10.1782066,32.0100958 C10.6965068,34.1526414 11.4999106,36.1840642 12.561449,38.0508337 L6.93579565,46.6299365 C6.77884586,46.8696199 6.81169514,47.1855461 7.01447197,47.3875131 L11.672064,52.0457159 C11.8679471,52.2411919 12.1737361,52.2789084 12.4126056,52.1353433 L21.7175114,42.0056986 Z" id="path79-9-8-1-5"></path>
                </g>
                <path d="M66.16388,44.6229 C66.16388,56.518512 56.51991,66.163358 44.62353,66.163358 C32.72762,66.163358 23.084,56.518512 23.084,44.6229 C23.084,32.727141 32.72762,23.083812 44.62353,23.083812 C56.51991,23.083812 66.16388,32.727141 66.16388,44.6229 Z" id="path2819-8-3-8-5" fill="#0079C1"></path>
            </g>
        </g>
    </g>
</svg>

<svg width="873" height="171" xmlns="http://www.w3.org/2000/svg"><g fill="none"><path d="M40.794 105.76c4.316 3.312 8.883 7.413 13.705 12.303 4.819 4.895 9.567 10.183 14.245 15.864a328.426 328.426 0 0 1 13.274 17.267c4.171 5.827 7.695 11.26 10.576 16.295h-24.39c-3.021-5.035-6.512-10.145-10.468-15.322a251.884 251.884 0 0 0-12.303-14.895c-4.245-4.748-8.562-9.135-12.95-13.166-4.391-4.027-8.525-7.409-12.41-10.145v53.528H0V3.453L20.073 0v102.307l11.439-11.439a517.001 517.001 0 0 0 12.303-12.734c4.026-4.315 7.841-8.451 11.438-12.409 3.596-3.957 6.691-7.447 9.281-10.469h23.742a1452.048 1452.048 0 0 0-10.792 11.87 649.868 649.868 0 0 1-12.087 13.059c-4.175 4.39-8.384 8.778-12.626 13.166a7042.826 7042.826 0 0 0-11.977 12.409Zm155.614 58.492c-4.606 1.152-10.685 2.374-18.238 3.668-7.555 1.296-16.296 1.943-26.225 1.943-8.633 0-15.9-1.261-21.8-3.776-5.901-2.516-10.649-6.078-14.245-10.685-3.598-4.604-6.188-10.036-7.77-16.295-1.585-6.261-2.374-13.2-2.374-20.829V55.255h20.072v58.706c0 13.672 2.158 23.456 6.476 29.354 4.316 5.902 11.581 8.852 21.8 8.852 2.158 0 4.387-.073 6.69-.218 2.3-.142 4.458-.324 6.476-.539 2.013-.216 3.848-.432 5.504-.647 1.652-.216 2.839-.465 3.561-.755V55.255h20.073v108.997ZM245.4 60.218c2.444-1.58 6.151-3.237 11.115-4.963 4.964-1.728 10.684-2.59 17.159-2.59 8.057 0 15.216 1.439 21.476 4.315 6.259 2.88 11.547 6.907 15.863 12.088 4.317 5.18 7.589 11.368 9.821 18.562 2.229 7.195 3.346 15.107 3.346 23.74 0 9.066-1.333 17.234-3.993 24.499-2.664 7.267-6.441 13.417-11.332 18.452-4.894 5.039-10.791 8.924-17.698 11.656-6.906 2.731-14.677 4.101-23.311 4.101-9.354 0-17.627-.647-24.821-1.943-7.196-1.294-13.095-2.588-17.698-3.884V3.453L245.4 0v60.218Zm0 89.789c2.013.576 4.855 1.115 8.525 1.617 3.669.506 8.235.757 13.705.757 10.792 0 19.426-3.562 25.9-10.684 6.476-7.123 9.713-17.23 9.713-30.326 0-5.753-.577-11.148-1.727-16.188-1.153-5.035-3.021-9.389-5.612-13.057-2.59-3.671-5.936-6.547-10.036-8.635-4.101-2.085-9.031-3.13-14.784-3.13-5.471 0-10.506.938-15.108 2.806-4.607 1.873-8.132 3.815-10.576 5.827v71.013Zm190.795 14.245c-4.605 1.152-10.684 2.374-18.236 3.668-7.555 1.296-16.296 1.943-26.225 1.943-8.633 0-15.901-1.261-21.799-3.776-5.902-2.516-10.651-6.078-14.245-10.685-3.6-4.604-6.189-10.036-7.771-16.295-1.586-6.261-2.374-13.2-2.374-20.829V55.255h20.072v58.706c0 13.672 2.158 23.456 6.476 29.354 4.315 5.902 11.58 8.852 21.8 8.852 2.158 0 4.386-.073 6.689-.218 2.3-.142 4.459-.324 6.477-.539a252.51 252.51 0 0 0 5.504-.647c1.65-.216 2.839-.465 3.561-.755V55.255h20.071v108.997Zm28.92-105.76c4.604-1.151 10.718-2.374 18.347-3.671 7.626-1.294 16.404-1.94 26.332-1.94 8.921 0 16.33 1.261 22.231 3.776 5.898 2.52 10.609 6.043 14.137 10.576 3.524 4.533 6.007 9.966 7.447 16.295 1.437 6.333 2.158 13.312 2.158 20.937v63.023h-20.073v-58.707c0-6.906-.469-12.804-1.403-17.698-.937-4.89-2.48-8.849-4.64-11.87-2.159-3.023-5.038-5.215-8.633-6.584-3.6-1.366-8.061-2.051-13.382-2.051-2.159 0-4.392.074-6.691.216-2.304.145-4.499.325-6.583.541a83.46 83.46 0 0 0-5.611.755c-1.656.29-2.844.506-3.562.646v94.752h-20.073V58.492h-.001Zm137.055-3.237h42.52V72.09h-42.52v51.8c0 5.612.431 10.253 1.295 13.922.863 3.67 2.158 6.549 3.885 8.633 1.727 2.088 3.886 3.562 6.476 4.425s5.611 1.297 9.064 1.297c6.185 0 11.079-.683 14.677-2.052 3.595-1.366 6.044-2.337 7.339-2.913l4.316 16.403c-2.017 1.008-5.578 2.304-10.684 3.884-5.109 1.583-10.899 2.375-17.375 2.375-7.628 0-13.921-.971-18.886-2.914s-8.957-4.856-11.979-8.74c-3.021-3.887-5.146-8.669-6.367-14.354-1.225-5.683-1.835-12.265-1.835-19.749V23.958l20.073-3.453v34.75h.001Zm151.729 108.997c-4.606 1.152-10.684 2.374-18.237 3.668-7.555 1.296-16.296 1.943-26.225 1.943-8.633 0-15.9-1.261-21.799-3.776-5.902-2.516-10.65-6.078-14.245-10.685-3.599-4.604-6.188-10.036-7.771-16.295-1.585-6.261-2.374-13.2-2.374-20.829V55.255h20.073v58.706c0 13.672 2.158 23.456 6.475 29.354 4.316 5.902 11.581 8.852 21.8 8.852 2.158 0 4.387-.073 6.69-.218 2.3-.142 4.459-.324 6.476-.539 2.013-.216 3.848-.432 5.504-.647 1.651-.216 2.839-.465 3.561-.755V55.255h20.072v108.997Z" fill="#FFF"/><path d="M872.24 55.171c0 24.644-19.98 44.625-44.625 44.625s-44.623-19.98-44.623-44.625c0-24.644 19.978-44.622 44.623-44.622 24.646 0 44.625 19.978 44.625 44.622Z" fill="#0079C1"/><path d="m812.998 71.112 1.516-32.901-10.085-9.187a.601.601 0 0 0-.756.08l-4.66 4.657a.604.604 0 0 0-.088.74l5.455 8.983a23.316 23.316 0 0 0-2.296 5.23l-10.015 2.083a.603.603 0 0 0-.479.59v6.588a.6.6 0 0 0 .459.585l9.72 2.376a23.288 23.288 0 0 0 2.382 6.04l-5.625 8.58a.602.602 0 0 0 .078.757l4.658 4.659a.607.607 0 0 0 .74.09l8.996-9.95Zm7.664-36.43 28.181 17.281 13.236-2.897a.601.601 0 0 0 .326-.687l-1.559-6.401a.604.604 0 0 0-.586-.46l-10.51-.008a23.316 23.316 0 0 0-3.275-4.68l3.424-9.638a.603.603 0 0 0-.255-.716l-5.629-3.423a.6.6 0 0 0-.738.088l-7.08 7.07a23.268 23.268 0 0 0-6.4-1.103l-4.406-9.265a.602.602 0 0 0-.688-.326l-6.4 1.559a.607.607 0 0 0-.462.586l2.82 13.02Zm27.628 25.053-28.438 15.592-3.441 13.022a.601.601 0 0 0 .446.616l6.362 1.711a.604.604 0 0 0 .685-.292l5.06-9.21a23.316 23.316 0 0 0 5.679-.622l6.804 7.637c.19.213.503.263.75.12l5.709-3.288a.6.6 0 0 0 .278-.69l-2.794-9.607a23.288 23.288 0 0 0 4.044-5.08l10.242.59a.602.602 0 0 0 .618-.446l1.71-6.36a.607.607 0 0 0-.291-.687l-13.423-3.006Z" fill="#FFF"/><path d="M849.156 55.172c0 11.896-9.644 21.54-21.54 21.54-11.896 0-21.54-9.644-21.54-21.54 0-11.896 9.644-21.539 21.54-21.539 11.896 0 21.54 9.643 21.54 21.54Z" fill="#0079C1"/></g></svg>
